X:3
T:ALYCRK1- Song, 'No more, vain Virgins, boast your Power'
S:from 'Love in a Village', 1729
Q:1/4=120
L:1/4
M:C|
K:G
D/|DGG3/2 A/|G/F/G3/4A/4 G3/2 G/|A3/2 B/ A/B/A/G/|F3/2 G/A2|\
DGG3/2 A/|G/F/G3/4A/4G3/2 G/|B3/2 c/dd/c/|B3/2 c/d3/2 d/|\
edc3/2 B/|c3/2 B/ A3/2 B/|cB/c/d3/2 G/|F3/2 G/A3/2 D/|\
G3/2 F/ E3/2 D/|ED/C/D3/2 c/|Bc/d/AB/c/|~F2G3/2:|]
























